launcher/android/assets/skins/day/svg/multiStageStartP.svg

<svg enable-background="new 0 0 220.00 232.00" height="232" viewBox="0 0 220 232" width="220" xmlns="http://www.w3.org/2000/svg"><g fill="#d56416" stroke-linejoin="round"><path d="m31.7345 79.6927c-1.2084-3.5416-1.6249-6.8472-1.4861-11.0139.1389-4.1667.8334-9.1944 3.9306-12.9583 3.0971-3.7639 8.5971-6.2639 13.2812-6.6076 4.6841-.3438 8.552 1.4687 11.2153 4.8542 2.6631 3.3854 4.1215 8.3438 5.2049 12.5729 1.0832 4.2291 1.7916 7.7291 2.7082 11.1041.9168 3.375 2.0418 6.625 3.3959 9.9584s2.9375 6.75 4.4271 9.7535c1.4895 3.003 2.8855 5.594 3.5834 7.278s.6979 2.462-2.08 4.795c-2.7777 2.333-8.3332 6.222-11.4859 8.319-3.1529 2.098-3.903 2.403-5.278 1.834-1.375-.57-3.375-2.014-6.1111-5.389-2.736-3.375-6.2082-8.681-9.0138-12.903-2.8055-4.2223-4.9444-7.3612-7.014-10.8195-2.0693-3.4582-4.0693-7.2361-5.2777-10.7778z"/><path d="m67.2344 124.332c2.8055-2.236 8.0277-6.431 10.9305-8.459 2.9027-2.027 3.4861-1.888 4.2361-1.222.75.667 1.6666 1.861 3.0973 3.764 1.4304 1.903 3.375 4.514 4.3332 7.306.9584 2.791.9306 5.763-.0764 8.215-1.0068 2.451-2.9929 4.382-5.7568 5.368s-6.3057 1.028-8.6182.424c-2.3125-.605-3.3957-1.855-4.8957-3.688s-3.4168-4.25-4.625-5.833c-1.2084-1.584-1.7084-2.334-1.7639-2.848-.0556-.513.3332-.791 3.1389-3.027z"/><path d="m176.9 109.585c-1.431-3.458-3.301-6.216-6.156-9.253-2.855-3.0377-6.696-6.3554-11.508-7.1374-4.811-.7818-10.592.972-14.337 3.8064-3.745 2.8345-5.453 6.75-5.218 11.051s2.413 8.987 4.392 12.879c1.978 3.891 3.757 6.988 5.297 10.128s2.841 6.324 4.025 9.721c1.183 3.398 2.25 7.009 3.115 10.248.864 3.24 1.526 6.107 2.113 7.832.588 1.726 1.102 2.31 4.728 2.228 3.627-.081 10.367-.829 14.12-1.335 3.752-.507 4.518-.772 5.174-2.108.657-1.335 1.205-3.741 1.032-8.082s-1.069-10.618-1.749-15.642c-.681-5.023-1.147-8.793-1.876-12.757-.729-3.963-1.721-8.121-3.152-11.579z"/><path d="m179.711 166.55c-3.584.173-10.275.47-13.794.864s-3.866.883-3.989 1.879-.023 2.498.159 4.872.446 5.618 1.569 8.348c1.124 2.729 3.107 4.943 5.481 6.119 2.375 1.177 5.142 1.315 7.868.231 2.727-1.084 5.415-3.391 6.753-5.372s1.326-3.635 1.242-6.002-.24-5.448-.378-7.435-.257-2.88-.555-3.303c-.297-.422-.773-.374-4.356-.201z"/></g></svg>

﻿<?xml version="1.0" encoding="utf-8"?>
<!DOCTYPE svg PUBLIC "-//W3C//DTD SVG 1.1//EN" "http://www.w3.org/Graphics/SVG/1.1/DTD/svg11.dtd">
<svg xmlns="http://www.w3.org/2000/svg" xmlns:xlink="http://www.w3.org/1999/xlink" version="1.1" baseProfile="full" width="220" height="232" viewBox="0 0 220.00 232.00" enable-background="new 0 0 220.00 232.00" xml:space="preserve">
	<g>
		<path fill="#D56416" fill-opacity="1" stroke-linejoin="round" d="M 31.7345,79.6927C 30.5261,76.1511 30.1096,72.8455 30.2484,68.6788C 30.3873,64.5121 31.0818,59.4844 34.179,55.7205C 37.2761,51.9566 42.7761,49.4566 47.4602,49.1129C 52.1443,48.7691 56.0122,50.5816 58.6755,53.9671C 61.3386,57.3525 62.797,62.3109 63.8804,66.54C 64.9636,70.7691 65.672,74.2691 66.5886,77.6441C 67.5054,81.0191 68.6304,84.2691 69.9845,87.6025C 71.3386,90.9359 72.922,94.3525 74.4116,97.356C 75.9011,100.359 77.2971,102.95 77.995,104.634C 78.6929,106.318 78.6929,107.096 75.915,109.429C 73.1373,111.762 67.5818,115.651 64.4291,117.748C 61.2762,119.846 60.5261,120.151 59.1511,119.582C 57.7761,119.012 55.7761,117.568 53.04,114.193C 50.304,110.818 46.8318,105.512 44.0262,101.29C 41.2207,97.0677 39.0818,93.9288 37.0122,90.4705C 34.9429,87.0123 32.9429,83.2344 31.7345,79.6927 Z "/>
		<path fill="#D56416" fill-opacity="1" stroke-linejoin="round" d="M 67.2344,124.332C 70.0399,122.096 75.2621,117.901 78.1649,115.873C 81.0676,113.846 81.651,113.985 82.401,114.651C 83.151,115.318 84.0676,116.512 85.4983,118.415C 86.9287,120.318 88.8733,122.929 89.8315,125.721C 90.7899,128.512 90.7621,131.484 89.7551,133.936C 88.7483,136.387 86.7622,138.318 83.9983,139.304C 81.2344,140.29 77.6926,140.332 75.3801,139.728C 73.0676,139.123 71.9844,137.873 70.4844,136.04C 68.9844,134.207 67.0676,131.79 65.8594,130.207C 64.651,128.623 64.151,127.873 64.0955,127.359C 64.0399,126.846 64.4287,126.568 67.2344,124.332 Z "/>
	</g>
	<g>
		<path fill="#D56416" fill-opacity="1" stroke-linejoin="round" d="M 176.9,109.585C 175.469,106.127 173.599,103.369 170.744,100.332C 167.889,97.2943 164.048,93.9766 159.236,93.1946C 154.425,92.4128 148.644,94.1666 144.899,97.001C 141.154,99.8355 139.446,103.751 139.681,108.052C 139.916,112.353 142.094,117.039 144.073,120.931C 146.051,124.822 147.83,127.919 149.37,131.059C 150.91,134.199 152.211,137.383 153.395,140.78C 154.578,144.178 155.645,147.789 156.51,151.028C 157.374,154.268 158.036,157.135 158.623,158.86C 159.211,160.586 159.725,161.17 163.351,161.088C 166.978,161.007 173.718,160.259 177.471,159.753C 181.223,159.246 181.989,158.981 182.645,157.645C 183.302,156.31 183.85,153.904 183.677,149.563C 183.504,145.222 182.608,138.945 181.928,133.921C 181.247,128.898 180.781,125.128 180.052,121.164C 179.323,117.201 178.331,113.043 176.9,109.585 Z "/>
		<path fill="#D56416" fill-opacity="1" stroke-linejoin="round" d="M 179.711,166.55C 176.127,166.723 169.436,167.02 165.917,167.414C 162.398,167.808 162.051,168.297 161.928,169.293C 161.805,170.289 161.905,171.791 162.087,174.165C 162.269,176.539 162.533,179.783 163.656,182.513C 164.78,185.242 166.763,187.456 169.137,188.632C 171.512,189.809 174.279,189.947 177.005,188.863C 179.732,187.779 182.42,185.472 183.758,183.491C 185.096,181.51 185.084,179.856 185,177.489C 184.916,175.122 184.76,172.041 184.622,170.054C 184.484,168.067 184.365,167.174 184.067,166.751C 183.77,166.329 183.294,166.377 179.711,166.55 Z "/>
	</g>
</svg>
